X: 1
T:A Cup of Tea
M:C
L:1/8
Q:80
C:Arr. by T. Tully
S:Reel
K:HP
|: {g}eA{gAGAG}A2{gf}g2{a}fg|
{g}eA{gAGAG}A2{g}BA{g}G{d}B|
{g}eA{gAGAG}A2{gf}g2{a}fg|  !
af{a}ge{g}dB{d}G{d}B:| |:
{g}ea{g}agef{a}ge|
{g}ea{g}ag((3ed{g}Bcd)|  !
{g}ea{g}agef{a}ge|
af{a}ge{g}dB{g}G{d}B:|
